X:1
T:Uncle Joe's "Hail Columbia"
M:2/4
L:1/8
K:G
 BB BA| GG GD| A2- A/2 G/2- A| B d3| BB BG| cc c/2 c3/2| d2 A3/2 B/2|\
 G3 z| A3/2 A/2A/2-B/2 c| B3/2 D/2D/2 D3/2| B3/2 A/2 EG| A3 z| BB BG|\
 cc c/2 c3/2| d2 A3/2 B/2| G3 z| d3/2 d/2 BG| ee e/2 e3/2| A3/2 A/2A/2-B/2 ^c|\
 d3 =c| BB BG| cc c/2 c3/2| d2 A3/2 B/2| G3 z|
